Papirus/64x64/apps/distributor-logo-knoppix.svg

<svg width="64" height="64" version="1.1" xmlns="http://www.w3.org/2000/svg">
 <path d="m18 31h28s2-7.777778 10-14c0-2 0-3-5-1-4 3.111112-18 12-18 12h-2s-13-8.888888-17-12c-6-2-6-1-6 1 8 6.222222 10 14 10 14z" style="opacity:.2"/>
 <path d="m17.842649 45.249998h28.657936l4.134931 6.874999h2.865793c2.564886 0 5.298691 2.750001 5.298691 4.125001-3.029554 1.374999-10 2-10 2l-8.790437 0.750002-7.694656-5.500001-7.694656 5.500001-9.820251-0.750002s-6.420786-0.625-9-2c0-1.375 2.313279-4.124999 4.878165-4.124999l3.316133-2e-6z" style="opacity:.2"/>
 <path d="m17.848351 44.125001h28.657936l4.134931 6.874999h2.865793c2.564886 0 5.298691 2.750001 5.298691 4.125001-3.029554 1.374999-10 2-10 2l-8.790437 0.750002-7.694656-5.500001-7.694656 5.500001-9.820251-0.750002s-6.4207857-0.625-9-2c0-1.375 2.3132792-4.124999 4.878165-4.124999l3.316133-2e-6z" style="fill:#f77d00"/>
 <path d="m17.527344 43.75-3.847656 6.875h-3.316407c-2.5648857 0-4.878906 2.75-4.878906 4.125 0.1991423 0.106164 0.4570442 0.199595 0.6972656 0.296875 0.763882-1.358757 2.5521068-2.921875 4.4863284-2.921875h3.316406l3.849609-6.875h28.65625l4.134766 6.875h2.867188c1.845395 0 3.762001 1.421647 4.701171 2.732422 0.090769-0.037327 0.206188-0.068922 0.291016-0.107422 0-1.375-2.733942-4.125-5.298828-4.125h-2.865235l-4.134765-6.875h-28.658203z" style="fill:#ffffff;opacity:.1"/>
 <path d="m36.75 61h14.25c0-5.285603-5.557661-7.532839-9.5-7.928404-3.526134-0.353801-9.5 3.147733-9.5 3.147733s-7.69881-4.101583-11.875-3.147733c-3.290162 0.751482-7.125 2.642801-7.125 7.928404h14.25c3.022727 0 4.75-3.187114 4.75-3.187114s1.727273 3.187114 4.75 3.187114z" style="opacity:.2"/>
 <path d="m36.75 60h14.25c0-5.285603-5.557661-7.532839-9.5-7.928404-3.526134-0.353801-9.5 3.147733-9.5 3.147733s-7.69881-4.101583-11.875-3.147733c-3.290162 0.751482-7.125 2.642801-7.125 7.928404h14.25c3.022727 0 4.75-3.187114 4.75-3.187114s1.727273 3.187114 4.75 3.187114z" style="fill:#eab108"/>
 <path d="m18 30h28s2-7.777778 10-14c0-2 0-3-5-1-4 3.111112-18 12-18 12h-2s-13-8.888888-17-12c-6-2-6-1-6 1 8 6.222222 10 14 10 14z" style="fill:#4f4f4f"/>
 <path d="m9.4648438 13.910156c-1.4648438-0.019531-1.4648438 0.839844-1.4648438 2.089844 0.0171897 0.01337 0.0316938 0.027632 0.0488281 0.041016 0.1606766-1.288608 1.0359921-1.679409 5.9511719-0.041016 4 3.111112 17 12 17 12h2s14-8.888888 18-12c4.08769-1.635076 4.822895-1.249098 4.958984 0.033203 0.014187-0.011073 0.026791-0.022139 0.041016-0.033203 0-2 0-3-5-1-4 3.111112-18 12-18 12h-2s-13-8.888888-17-12c-2.25-0.75-3.65625-1.078125-4.5351562-1.089844z" style="fill:#ffffff;opacity:.1"/>
 <path d="m21.833984 51.712891c-0.610188-0.020867-1.18696 0.01944-1.708984 0.138671-3.290162 0.751483-7.125 2.644085-7.125 7.929688h0.050781c0.454097-4.529005 4.000739-6.227696 7.074219-6.929688 4.17619-0.95385 11.875 3.148438 11.875 3.148438s5.973866-3.502238 9.5-3.148438c3.683929 0.369637 8.77571 2.357982 9.427734 6.929688h0.072266c0-5.285603-5.557661-7.534122-9.5-7.929688-3.526134-0.3538-9.5 3.148438-9.5 3.148438s-5.894694-3.141046-10.166016-3.287109z" style="fill:#ffffff;opacity:.2"/>
 <path d="M 32,5 C 26.630469,5 22,9.9963919 22,16.201172 22,19.882639 21.440446,22.679229 20.625,25 H 12 c -2.999834,0.03161 -8,2 -8,3 5.104341,0.680579 9.07701,1.942899 13.4375,3.308594 C 15.645586,34.246099 14,36.96948 14,41.400391 14,52.224891 22.058891,61 32,61 41.941109,61 50,52.224891 50,41.400391 50,36.888013 48.295059,34.147045 46.464844,31.146484 50.403647,29.843558 55.751145,28.65367 60,28 60,27 55,25 52,25 H 43.375 C 42.559554,22.679229 42,19.882639 42,16.201172 42,9.9963919 37.369531,5 32,5 Z" style="opacity:.2"/>
 <path d="M 32,4 C 26.630469,4 22,8.9963919 22,15.201172 22,18.882639 21.440446,21.679229 20.625,24 H 12 c -2.9998336,0.03161 -8,2 -8,3 5.1043413,0.680579 9.07701,1.942899 13.4375,3.308594 C 15.645586,33.246099 14,35.96948 14,40.400391 14,51.224891 22.058891,60 32,60 41.941109,60 50,51.224891 50,40.400391 50,35.888013 48.295059,33.147045 46.464844,30.146484 50.403647,28.843558 55.751145,27.65367 60,27 60,26 55,24 52,24 H 43.375 C 42.559554,21.679229 42,18.882639 42,15.201172 42,8.9963919 37.369531,4 32,4 Z" style="fill:#cbcbcb"/>
 <path d="m32 21.00068c-3.579684 0-5.99999 3.0328-5.99999 6.7998 0 8.5002-5.99999 9.35-5.99999 15.3 0 6.5721 5.372575 11.9001 11.99998 11.9001s11.99998-5.328 11.99998-11.9001c0-5.95-5.99999-6.7998-5.99999-15.3 0-3.767-2.420306-6.7998-5.99999-6.7998z" style="opacity:.1"/>
 <path d="m32 20.00058c-3.579684 0-5.959041 3.0328-5.959041 6.7998 0 8.5002-6.040939 9.35-6.040939 15.3 0 6.5721 5.372575 11.9001 11.99998 11.9001s11.99998-5.328 11.99998-11.9001c0-5.95-5.959021-6.7998-5.959021-15.3 0-3.767-2.461275-6.7998-6.040959-6.7998z" style="fill:#ffffff"/>
 <circle cx="27.999958" cy="15.00038" r="4" style="opacity:.1"/>
 <circle cx="27.999958" cy="14.00038" r="4" style="fill:#ffffff"/>
 <circle cx="27.999958" cy="14.00038" r="2" style="fill:#323232"/>
 <path d="m37.99999 20.00058c0 3.8662-2.686288 7-5.99999 7s-5.99999-3.1338-5.99999-7z" style="opacity:.1"/>
 <path d="m37.99999 19.20058c0 3.8662-2.686288 6.8-5.99999 6.8s-5.99999-2.9338-5.99999-6.8z" style="fill:#f77d00"/>
 <circle cx="35.999958" cy="15.00038" r="4" style="opacity:.1"/>
 <circle cx="35.999958" cy="14.00038" r="4" style="fill:#ffffff"/>
 <circle cx="35.999958" cy="14.00038" r="2" style="fill:#323232"/>
 <path d="m37.99999 19.33398c0 0.6666-2.686288 4.6666-5.99999 4.6666s-5.99999-4-5.99999-4.6666c0-1.841 2.686288-3.3334 5.99999-3.3334s5.99999 1.4924 5.99999 3.3334z" style="fill:#eab108"/>
 <path d="M 32,4 C 26.630469,4 22,8.9963919 22,15.201172 22,18.882639 21.440446,21.679229 20.625,24 H 12 c -2.999834,0.03161 -8,2 -8,3 0.2795523,0.03727 0.5433932,0.08236 0.8164062,0.123047 C 6.356284,26.143771 9.7426966,25.023786 12,25 h 8.625 C 21.440446,22.679229 22,19.882639 22,16.201172 22,9.9963919 26.630469,5 32,5 37.369531,5 42,9.9963919 42,16.201172 42,19.882639 42.559554,22.679229 43.375,25 H 52 c 2.273,0 5.684366,1.147272 7.208984,2.138672 C 59.466714,27.096474 59.749399,27.038554 60,27 60,26 55,24 52,24 H 43.375 C 42.559554,21.679229 42,18.882639 42,15.201172 42,8.9963919 37.369531,4 32,4 Z M 46.464844,30.146484 C 46.304529,30.197722 46.156049,30.948381 46,31 c 1.759588,2.884772 3.852317,5.692627 3.976562,9.902344 C 49.980489,40.733912 50,40.569852 50,40.400391 50,36.317049 48.086563,32.833696 46.464844,30.146484 Z M 17.4375,30.308594 C 15.856338,32.941848 14,36.396483 14,40.400391 c 0,0.168803 0.01954,0.332218 0.02344,0.5 C 14.145791,36.770511 16.278704,33.821741 18,31 c -0.168572,-0.0528 -0.394999,-0.638946 -0.5625,-0.691406 z" style="fill:#ffffff;opacity:.2"/>
</svg>

<svg xmlns="http://www.w3.org/2000/svg" width="64" height="64" version="1.1">
 <path style="opacity:0.2" d="M 18,31 H 46 C 46,31 48,23.222 56,17 56,15 56,14 51,16 47,19.111 33,28 33,28 H 31 C 31,28 18,19.111 14,16 8,14 8,15 8,17 16,23.222 18,31 18,31 Z"/>
 <path style="opacity:0.2" d="M 17,45 H 47 L 50,52.068 53,52 C 55.564,51.942 58,54.625 58,56 54.97,57.375 49,58 49,58 L 40,59 32.5,53.5 25,59 15,58 C 15,58 8.5792,57.375 6,56 6,54.625 8.4353,52 11,52 H 14 Z"/>
 <path style="fill:#f77d00" d="M 17,44 H 47 L 50,51.068 53,51 C 55.564,50.942 58,53.625 58,55 54.97,56.375 49,57 49,57 L 40,58 32.5,52.5 25,58 15,57 C 15,57 8.5792,56.375 6,55 6,53.625 8.4353,51 11,51 H 14 Z"/>
 <path style="opacity:0.2;fill:#ffffff" d="M 17,44 14,51 H 11 C 8.4353,51 6,53.625 6,55 6.076,55.041 6.1832,55.074 6.2656,55.113 6.9423,53.726 8.9168,52 11,52 H 14 L 17,45 H 47 L 50,52.068 53,52 C 55.08,51.953 57.053,53.703 57.732,55.102 57.817,55.066 57.919,55.037 58,55 58,53.625 55.564,50.942 53,51 L 50,51.068 47,44 Z"/>
 <path style="opacity:0.2" d="M 36.75,61 H 51 C 51,55.714 45.442,53.467 41.5,53.072 37.974,52.718 32,56.219 32,56.219 32,56.219 24.301,52.118 20.125,53.072 16.835,53.823 13,55.714 13,61 H 27.25 C 30.273,61 32,57.813 32,57.813 32,57.813 33.727,61 36.75,61 Z"/>
 <path style="fill:#eab108" d="M 36.75,60 H 51 C 51,54.714 45.442,52.467 41.5,52.072 37.974,51.718 32,55.219 32,55.219 32,55.219 24.301,51.118 20.125,52.072 16.835,52.823 13,54.714 13,60 H 27.25 C 30.273,60 32,56.813 32,56.813 32,56.813 33.727,60 36.75,60 Z"/>
 <path style="opacity:0.2;fill:#ffffff" d="M 21.834,51.934 C 21.224,51.913 20.647,51.953 20.125,52.072 16.835,52.823 13,54.714 13,60 H 13.051 C 13.506,55.472 17.052,53.774 20.125,53.072 24.301,52.118 32,56.219 32,56.219 32,56.219 37.974,52.718 41.5,53.072 45.183,53.441 50.275,55.429 50.928,60 H 51 C 51,54.714 45.442,52.467 41.5,52.072 37.974,51.718 32,55.219 32,55.219 32,55.219 26.105,52.079 21.834,51.934 Z"/>
 <path style="fill:#4f4f4f" d="M 18,30 H 46 C 46,30 48,22.222 56,16 56,14 56,13 51,15 47,18.111 33,27 33,27 H 31 C 31,27 18,18.111 14,15 8,13 8,14 8,16 16,22.222 18,30 18,30 Z"/>
 <path style="opacity:0.1;fill:#ffffff" d="M 9.4648,13.91 C 8,13.891 8,14.75 8,16 8.0172,16.013 8.0317,16.028 8.0488,16.041 8.2095,14.752 9.0848,14.362 14,16 18,19.111 31,28 31,28 H 33 C 33,28 47,19.111 51,16 55.088,14.365 55.823,14.751 55.959,16.033 55.973,16.022 55.986,16.011 56,16 56,14 56,13 51,15 47,18.111 33,27 33,27 H 31 C 31,27 18,18.111 14,15 11.75,14.25 10.344,13.922 9.4648,13.91 Z"/>
 <path style="opacity:0.2" d="M 32,5 C 26.63,5 22,9.9964 22,16.201 22,19.883 21.44,22.679 20.625,25 H 12 C 9.0002,25.032 4,27 4,28 9.1043,28.681 13.077,29.943 17.437,31.309 15.646,34.246 14,36.969 14,41.4 14,52.225 22.059,61 32,61 41.941,61 50,52.225 50,41.4 50,36.888 48.295,34.147 46.465,31.146 50.404,29.844 55.751,28.654 60,28 60,27 55,25 52,25 H 43.375 C 42.56,22.679 42,19.883 42,16.201 42,9.9964 37.37,5 32,5 Z"/>
 <path style="fill:#cbcbcb" d="M 32,4 C 26.63,4 22,9 22,15 22,19 21.44,21.679 20.625,24 H 12 C 9.0002,24.032 4,26 4,27 9.1043,27.681 13.077,28.943 17.437,30.309 15.646,33.246 14,35.969 14,40.4 14,51.225 22.059,60 32,60 41.941,60 50,51.225 50,40.4 50,35.888 48.295,33.147 46.465,30.146 50.404,28.844 55.751,27.654 60,27 60,26 55,24 52,24 H 43.375 C 42.56,21.679 42,19 42,15 42,9 37.37,4 32,4 Z"/>
 <path style="opacity:0.1" d="M 32,21 C 28.42,21 26,24.233 26,28 26,36.501 20,37 20,43 20,49.572 25.373,55 32,55 38.627,55 44,49.572 44,43 44,37 38,36.501 38,28 38,24.233 35.58,21 32,21 Z"/>
 <path style="fill:#ffffff" d="M 32,20 C 28.42,20 26,23.233 26,27 26,35.501 20,36 20,42 20,48.572 25.373,54 32,54 38.627,54 44,48.572 44,42 44,36 38,35.501 38,27 38,23.233 35.58,20 32,20 Z"/>
 <circle style="opacity:0.1" cx="28" cy="15" r="4"/>
 <circle style="fill:#ffffff" cx="28" cy="14" r="4"/>
 <circle style="fill:#323232" cx="28" cy="14" r="2"/>
 <path style="opacity:0.1" d="M 38,20.2 C 38,24.066 35.314,27 32,27 28.686,27 26,24.066 26,20.2 Z"/>
 <path style="fill:#f77d00" d="M 38,19.2 C 38,23.066 35.314,26 32,26 28.686,26 26,23.066 26,19.2 Z"/>
 <circle style="opacity:0.1" cx="36" cy="15" r="4"/>
 <circle style="fill:#ffffff" cx="36" cy="14" r="4"/>
 <circle style="fill:#323232" cx="36" cy="14" r="2"/>
 <path style="fill:#eab108" d="M 38,19.333 C 38,20 35.314,24 32,24 28.686,24 26,20 26,19.333 26,17.492 28.686,16 32,16 35.314,16 38,17.492 38,19.333 Z"/>
 <path style="opacity:0.2;fill:#ffffff" d="M 32,4 C 26.63,4 22,9 22,15 22,19 21.44,21.679 20.625,24 H 12 C 9.0002,24.032 4,26 4,27 4.2796,27.037 4.5434,27.082 4.8164,27.123 6.3563,26.144 9.7427,25.024 12,25 H 20.625 C 21.44,22.679 22,20 22,16 22,10 26.63,5 32,5 37.37,5 42,10 42,16 42,20 42.56,22.679 43.375,25 H 52 C 54.273,25 57.684,26.147 59.209,27.139 59.467,27.096 59.749,27.039 60,27 60,26 55,24 52,24 H 43.375 C 42.56,21.679 42,19 42,15 42,9 37.37,4 32,4 Z M 46.969,30.996 C 46.808,31.047 46.621,31.095 46.465,31.146 48.224,34.032 49.852,36.693 49.977,40.902 49.98,40.734 50,40.57 50,40.4 50,36.318 48.59,33.683 46.969,30.996 Z M 16.939,31.154 C 15.359,33.787 14,36.396 14,40.4 14,40.569 14.02,40.733 14.023,40.9 14.146,36.77 15.717,34.13 17.438,31.309 17.269,31.256 17.107,31.207 16.939,31.154 Z"/>
</svg>
